icon/pk/facebook-one.svg

<svg viewBox="0 0 48 48" fill="none" xmlns="http://www.w3.org/2000/svg" height="1em" width="1em">
  <path fill-rule="evenodd" clip-rule="evenodd" d="M4.11111 46C2.94518 46 2 45.0496 2 43.8773V4.12274C2 2.95038 2.94518 2 4.11111 2H43.8889C45.0548 2 46 2.95038 46 4.12274V43.8773C46 45.0496 45.0548 46 43.8889 46C42.4815 46 29.2222 46 4.11111 46Z" stroke="black" stroke-width="4" stroke-linecap="round" stroke-linejoin="round"/>
  <path fill-rule="evenodd" clip-rule="evenodd" d="M38.6617 17.8869H34.3076H33.7932C32.4431 17.8869 31.3487 18.9814 31.3487 20.3314V25.2217H38.6617L37.5907 32.5525H31.3487V46H23.3067V32.5525H16.667V25.2217H23.2209L23.3067 18.2633L23.2828 15.7694C23.249 12.2477 26.0764 9.36542 29.5981 9.33159C29.6185 9.3314 29.6389 9.3313 29.6593 9.3313H38.6617V17.8869Z" fill="black"/>
</svg>

<svg width="48" height="48" fill="none" xmlns="http://www.w3.org/2000/svg"><path clip-rule="evenodd" d="M4.111 46A2.117 2.117 0 0 1 2 43.877V4.123C2 2.95 2.945 2 4.111 2H43.89C45.055 2 46 2.95 46 4.123v39.754A2.117 2.117 0 0 1 43.889 46H4.11Z" stroke="#000" stroke-width="4" stroke-linecap="round" stroke-linejoin="round"/><path fill-rule="evenodd" clip-rule="evenodd" d="M38.662 17.887h-4.869a2.445 2.445 0 0 0-2.444 2.444v4.89h7.313l-1.071 7.332h-6.242V46h-8.042V32.553h-6.64v-7.331h6.554l.086-6.959-.024-2.494a6.377 6.377 0 0 1 6.376-6.438h9.003v8.556Z" fill="#000"/></svg>
